images/Call_me_round.svg

<?xml version="1.0" encoding="UTF-8" standalone="no"?>
<svg
   width="72"
   height="72"
   viewBox="0 0 72 72"
   fill="none"
   version="1.1"
   id="svg25"
   sodipodi:docname="Call_me_round.svg"
   inkscape:version="1.1 (c68e22c387, 2021-05-23)"
   xmlns:inkscape="http://www.inkscape.org/namespaces/inkscape"
   xmlns:sodipodi="http://sodipodi.sourceforge.net/DTD/sodipodi-0.dtd"
   xmlns="http://www.w3.org/2000/svg"
   xmlns:svg="http://www.w3.org/2000/svg">
  <sodipodi:namedview
     id="namedview27"
     pagecolor="#505050"
     bordercolor="#eeeeee"
     borderopacity="1"
     inkscape:pageshadow="0"
     inkscape:pageopacity="0"
     inkscape:pagecheckerboard="0"
     showgrid="false"
     fit-margin-top="0"
     fit-margin-left="0"
     fit-margin-right="0"
     fit-margin-bottom="0"
     inkscape:zoom="4.8913044"
     inkscape:cx="10.222222"
     inkscape:cy="29.542222"
     inkscape:window-width="1920"
     inkscape:window-height="1001"
     inkscape:window-x="-9"
     inkscape:window-y="-9"
     inkscape:window-maximized="1"
     inkscape:current-layer="g6" />
  <g
     filter="url(#filter0_d_1_38)"
     id="g6"
     transform="translate(-10,-6)">
    <path
       d="M 46,77.5 C 65.6061,77.5 81.5,61.6061 81.5,42 81.5,22.3939 65.6061,6.5 46,6.5 26.3939,6.5 10.5,22.3939 10.5,42 10.5,61.6061 26.3939,77.5 46,77.5 Z"
       fill="#ffffff"
       stroke="#dcddeb"
       id="path2" />
    <path
       d="m 57.0856,59.3845 c -0.0124,0 -0.0247,0 -0.0371,0 C 51.11,59.19 44.1529,53.4336 39.3595,48.6371 34.5599,43.8407 28.8035,36.8805 28.6183,30.9698 c -0.0679,-2.0742 5.0219,-5.7626 5.0743,-5.7997 1.3211,-0.9197 2.7872,-0.5926 3.3891,0.2408 0.4074,0.5648 4.2656,6.4107 4.6853,7.0744 0.4352,0.6883 0.3704,1.713 -0.1728,2.7408 -0.2994,0.571 -1.2933,2.318 -1.7593,3.1329 0.5031,0.716 1.8334,2.4723 4.5804,5.2193 2.7501,2.747 4.5033,4.0804 5.2224,4.5835 0.8149,-0.4661 2.5619,-1.4599 3.1329,-1.7593 1.0123,-0.5371 2.0309,-0.605 2.7254,-0.179 0.7099,0.4352 6.5404,4.3119 7.0774,4.6853 0.4507,0.318 0.7408,0.8612 0.7994,1.4939 0.0556,0.6389 -0.1419,1.3149 -0.5524,1.9044 -0.034,0.0494 -3.6792,5.0774 -5.7348,5.0774 z"
       fill="#0075ff"
       id="path4" />
  </g>
  <defs
     id="defs23">
    <filter
       id="filter0_d_1_38"
       x="0"
       y="0"
       width="92"
       height="92"
       filterUnits="userSpaceOnUse"
       color-interpolation-filters="sRGB">
      <feFlood
         flood-opacity="0"
         result="BackgroundImageFix"
         id="feFlood8" />
      <feColorMatrix
         in="SourceAlpha"
         type="matrix"
         values="0 0 0 0 0 0 0 0 0 0 0 0 0 0 0 0 0 0 127 0"
         result="hardAlpha"
         id="feColorMatrix10" />
      <feOffset
         dy="4"
         id="feOffset12" />
      <feGaussianBlur
         stdDeviation="5"
         id="feGaussianBlur14" />
      <feColorMatrix
         type="matrix"
         values="0 0 0 0 0.0784314 0 0 0 0 0.0784314 0 0 0 0 0.168627 0 0 0 0.04 0"
         id="feColorMatrix16" />
      <feBlend
         mode="normal"
         in2="BackgroundImageFix"
         result="effect1_dropShadow_1_38"
         id="feBlend18" />
      <feBlend
         mode="normal"
         in="SourceGraphic"
         in2="effect1_dropShadow_1_38"
         result="shape"
         id="feBlend20" />
    </filter>
  </defs>
</svg>

<svg width="92" height="92" viewBox="0 0 92 92" fill="none" xmlns="http://www.w3.org/2000/svg">
<g filter="url(#filter0_d_1_38)">
<path d="M46 77.5C65.6061 77.5 81.5 61.6061 81.5 42C81.5 22.3939 65.6061 6.5 46 6.5C26.3939 6.5 10.5 22.3939 10.5 42C10.5 61.6061 26.3939 77.5 46 77.5Z" fill="white" stroke="#DCDDEB"/>
<path d="M57.0856 59.3845C57.0732 59.3845 57.0609 59.3845 57.0485 59.3845C51.11 59.19 44.1529 53.4336 39.3595 48.6371C34.5599 43.8407 28.8035 36.8805 28.6183 30.9698C28.5504 28.8956 33.6402 25.2072 33.6926 25.1701C35.0137 24.2504 36.4798 24.5775 37.0817 25.4109C37.4891 25.9757 41.3473 31.8216 41.767 32.4853C42.2022 33.1736 42.1374 34.1983 41.5942 35.2261C41.2948 35.7971 40.3009 37.5441 39.8349 38.359C40.338 39.075 41.6683 40.8313 44.4153 43.5783C47.1654 46.3253 48.9186 47.6587 49.6377 48.1618C50.4526 47.6957 52.1996 46.7019 52.7706 46.4025C53.7829 45.8654 54.8015 45.7975 55.496 46.2235C56.2059 46.6587 62.0364 50.5354 62.5734 50.9088C63.0241 51.2268 63.3142 51.77 63.3728 52.4027C63.4284 53.0416 63.2309 53.7176 62.8204 54.3071C62.7864 54.3565 59.1412 59.3845 57.0856 59.3845Z" fill="#0075FF"/>
</g>
<defs>
<filter id="filter0_d_1_38" x="0" y="0" width="92" height="92" filterUnits="userSpaceOnUse" color-interpolation-filters="sRGB">
<feFlood flood-opacity="0" result="BackgroundImageFix"/>
<feColorMatrix in="SourceAlpha" type="matrix" values="0 0 0 0 0 0 0 0 0 0 0 0 0 0 0 0 0 0 127 0" result="hardAlpha"/>
<feOffset dy="4"/>
<feGaussianBlur stdDeviation="5"/>
<feColorMatrix type="matrix" values="0 0 0 0 0.0784314 0 0 0 0 0.0784314 0 0 0 0 0.168627 0 0 0 0.04 0"/>
<feBlend mode="normal" in2="BackgroundImageFix" result="effect1_dropShadow_1_38"/>
<feBlend mode="normal" in="SourceGraphic" in2="effect1_dropShadow_1_38" result="shape"/>
</filter>
</defs>
</svg>
